public/img/steps-list-arrow--blue.svg

<svg width="208" height="16" viewBox="0 0 208 16" fill="none" xmlns="http://www.w3.org/2000/svg">
<path d="M207.707 8.70711C208.098 8.31658 208.098 7.68342 207.707 7.29289L201.343 0.928932C200.953 0.538408 200.319 0.538408 199.929 0.928932C199.538 1.31946 199.538 1.95262 199.929 2.34315L205.586 8L199.929 13.6569C199.538 14.0474 199.538 14.6805 199.929 15.0711C200.319 15.4616 200.953 15.4616 201.343 15.0711L207.707 8.70711ZM0 9H5.175V7H0V9ZM15.525 9H25.875V7H15.525V9ZM36.225 9H46.575V7H36.225V9ZM56.925 9H67.275V7H56.925V9ZM77.625 9H87.975V7H77.625V9ZM98.325 9H108.675V7H98.325V9ZM119.025 9H129.375V7H119.025V9ZM139.725 9H150.075V7H139.725V9ZM160.425 9H170.775V7H160.425V9ZM181.125 9H191.475V7H181.125V9ZM201.825 9H207V7H201.825V9Z" fill="#476FB2"/>
</svg>

<svg width="208" height="16" fill="none" xmlns="http://www.w3.org/2000/svg"><path d="M207.707 8.707a1 1 0 000-1.414L201.343.929a1 1 0 10-1.414 1.414L205.586 8l-5.657 5.657a1 1 0 101.414 1.414l6.364-6.364zM0 9h5.175V7H0v2zm15.525 0h10.35V7h-10.35v2zm20.7 0h10.35V7h-10.35v2zm20.7 0h10.35V7h-10.35v2zm20.7 0h10.35V7h-10.35v2zm20.7 0h10.35V7h-10.35v2zm20.7 0h10.35V7h-10.35v2zm20.7 0h10.35V7h-10.35v2zm20.7 0h10.35V7h-10.35v2zm20.7 0h10.35V7h-10.35v2zm20.7 0H207V7h-5.175v2z" fill="#476FB2"/></svg>
